src/icons/0113_plusPerson_a.svg

<svg data-name="Layer 1" xmlns="http://www.w3.org/2000/svg" viewBox="0 0 48 48"><path d="M48 34H38V24h-4v10H24v4h10v10h4V38h10zM19.7-.1A8.7 8.7 0 1111 8.6a8.71 8.71 0 018.7-8.7zM22 32h10v-7.4a12.84 12.84 0 00-10.2-5h-4.2A12.93 12.93 0 004.7 32.5v4.4H22z"/></svg>

<svg id="Layer_1" data-name="Layer 1" xmlns="http://www.w3.org/2000/svg" viewBox="0 0 48 48"><title>0113_plusPerson_a</title><path d="M48,34H38V24H34V34H24v4H34V48h4V38H48ZM19.7-.1A8.7,8.7,0,1,1,11,8.6,8.71,8.71,0,0,1,19.7-.1ZM22,32H32V24.6a12.84,12.84,0,0,0-10.2-5H17.6A12.93,12.93,0,0,0,4.7,32.5v4.4H22Z"/></svg>
